icons/svg/resources/labeled/pod.svg

<svg height="17.500378mm" viewBox="0 0 18.035334 17.500378" width="18.035334mm" xmlns="http://www.w3.org/2000/svg"><g transform="translate(-.992626 -1.174181)"><g transform="matrix(1.0148887 0 0 1.0148887 16.902146 -2.698726)"><path d="m-6.8492015 4.2724668a1.1191255 1.1099671 0 0 0 -.4288818.1085303l-5.8524037 2.7963394a1.1191255 1.1099671 0 0 0 -.605524.7529759l-1.443828 6.2812846a1.1191255 1.1099671 0 0 0 .151943.851028 1.1191255 1.1099671 0 0 0 .06362.08832l4.0508 5.036555a1.1191255 1.1099671 0 0 0 .874979.417654l6.4961011-.0015a1.1191255 1.1099671 0 0 0 .8749788-.416906l4.0493043-5.037295a1.1191255 1.1099671 0 0 0 .2163114-.939349l-1.44607203-6.2812886a1.1191255 1.1099671 0 0 0 -.60552451-.7529758l-5.85315166-2.7948425a1.1191255 1.1099671 0 0 0 -.5426519-.1085303z" fill="#326ce5"/><path d="m-6.8523435 3.8176372a1.1814304 1.171762 0 0 0 -.4520849.1152668l-6.1787426 2.9512758a1.1814304 1.171762 0 0 0 -.639206.794891l-1.523915 6.6308282a1.1814304 1.171762 0 0 0 .160175.89893 1.1814304 1.171762 0 0 0 .06736.09281l4.276094 5.317236a1.1814304 1.171762 0 0 0 .92363.440858l6.8576188-.0015a1.1814304 1.171762 0 0 0 .9236308-.44011l4.2745966-5.317985a1.1814304 1.171762 0 0 0 .228288-.990993l-1.52615681-6.6315712a1.1814304 1.171762 0 0 0 -.6392054-.7941425l-6.17874269-2.9512758a1.1814304 1.171762 0 0 0 -.5733398-.1145183zm.00299.4550789a1.1191255 1.1099671 0 0 1 .5426517.1085303l5.85315169 2.7948425a1.1191255 1.1099671 0 0 1 .60552822.7529759l1.44607289 6.2812852a1.1191255 1.1099671 0 0 1 -.2163123.939348l-4.0493032 5.037304a1.1191255 1.1099671 0 0 1 -.8749789.416906l-6.4961006.0015a1.1191255 1.1099671 0 0 1 -.874979-.417652l-4.0508-5.036554a1.1191255 1.1099671 0 0 1 -.06362-.08832 1.1191255 1.1099671 0 0 1 -.151942-.851028l1.443827-6.2812853a1.1191255 1.1099671 0 0 1 .605524-.7529758l5.8524036-2.7963395a1.1191255 1.1099671 0 0 1 .4288819-.1085303z" fill="#fff"/></g><g fill="#fff"><text font-family="Sans" font-size="10.583333" letter-spacing="0" stroke-width=".264583" word-spacing="0" x="10.017183" y="16.811775"><tspan fill="#fff" font-family="Arial" font-size="2.822222" stroke-width=".264583" text-anchor="middle" x="10.017183" y="16.811775">pod</tspan></text><g fill-rule="evenodd" transform="translate(.127667)"><path d="m6.2617914 7.036086 3.6208403-1.049999 3.6208303 1.049999-3.6208303 1.050001z"/><path d="m6.2617914 7.43817v3.852778l3.3736103 1.868749.0167-4.713193z"/><path d="m13.503462 7.43817v3.852778l-3.37361 1.868749-.0167-4.713193z"/></g></g></g></svg>

<?xml version="1.0" encoding="UTF-8" standalone="no"?>
<!-- Created with Inkscape (http://www.inkscape.org/) -->

<svg
   xmlns:dc="http://purl.org/dc/elements/1.1/"
   xmlns:cc="http://creativecommons.org/ns#"
   xmlns:rdf="http://www.w3.org/1999/02/22-rdf-syntax-ns#"
   xmlns:svg="http://www.w3.org/2000/svg"
   xmlns="http://www.w3.org/2000/svg"
   xmlns:sodipodi="http://sodipodi.sourceforge.net/DTD/sodipodi-0.dtd"
   xmlns:inkscape="http://www.inkscape.org/namespaces/inkscape"
   width="18.035334mm"
   height="17.500378mm"
   viewBox="0 0 18.035334 17.500378"
   version="1.1"
   id="svg13826"
   inkscape:version="0.91 r13725"
   sodipodi:docname="pod.svg">
  <defs
     id="defs13820" />
  <sodipodi:namedview
     id="base"
     pagecolor="#ffffff"
     bordercolor="#666666"
     borderopacity="1.0"
     inkscape:pageopacity="0.0"
     inkscape:pageshadow="2"
     inkscape:zoom="8"
     inkscape:cx="16.847496"
     inkscape:cy="33.752239"
     inkscape:document-units="mm"
     inkscape:current-layer="layer1"
     showgrid="false"
     inkscape:window-width="1440"
     inkscape:window-height="775"
     inkscape:window-x="0"
     inkscape:window-y="1"
     inkscape:window-maximized="1"
     fit-margin-top="0"
     fit-margin-left="0"
     fit-margin-right="0"
     fit-margin-bottom="0" />
  <metadata
     id="metadata13823">
    <rdf:RDF>
      <cc:Work
         rdf:about="">
        <dc:format>image/svg+xml</dc:format>
        <dc:type
           rdf:resource="http://purl.org/dc/dcmitype/StillImage" />
        <dc:title />
      </cc:Work>
    </rdf:RDF>
  </metadata>
  <g
     inkscape:label="Calque 1"
     inkscape:groupmode="layer"
     id="layer1"
     transform="translate(-0.99262638,-1.174181)">
    <g
       id="g70"
       transform="matrix(1.0148887,0,0,1.0148887,16.902146,-2.698726)">
      <path
         inkscape:export-ydpi="250.55"
         inkscape:export-xdpi="250.55"
         inkscape:export-filename="new.png"
         inkscape:connector-curvature="0"
         id="path3055"
         d="m -6.8492015,4.2724668 a 1.1191255,1.1099671 0 0 0 -0.4288818,0.1085303 l -5.8524037,2.7963394 a 1.1191255,1.1099671 0 0 0 -0.605524,0.7529759 l -1.443828,6.2812846 a 1.1191255,1.1099671 0 0 0 0.151943,0.851028 1.1191255,1.1099671 0 0 0 0.06362,0.08832 l 4.0508,5.036555 a 1.1191255,1.1099671 0 0 0 0.874979,0.417654 l 6.4961011,-0.0015 a 1.1191255,1.1099671 0 0 0 0.8749788,-0.416906 L 1.3818872,15.149453 A 1.1191255,1.1099671 0 0 0 1.5981986,14.210104 L 0.15212657,7.9288154 A 1.1191255,1.1099671 0 0 0 -0.45339794,7.1758396 L -6.3065496,4.3809971 A 1.1191255,1.1099671 0 0 0 -6.8492015,4.2724668 Z"
         style="fill:#326ce5;fill-opacity:1;stroke:none;stroke-width:0;stroke-miterlimit:4;stroke-dasharray:none;stroke-opacity:1" />
      <path
         id="path3054-2-9"
         d="M -6.8523435,3.8176372 A 1.1814304,1.171762 0 0 0 -7.3044284,3.932904 l -6.1787426,2.9512758 a 1.1814304,1.171762 0 0 0 -0.639206,0.794891 l -1.523915,6.6308282 a 1.1814304,1.171762 0 0 0 0.160175,0.89893 1.1814304,1.171762 0 0 0 0.06736,0.09281 l 4.276094,5.317236 a 1.1814304,1.171762 0 0 0 0.92363,0.440858 l 6.8576188,-0.0015 a 1.1814304,1.171762 0 0 0 0.9236308,-0.44011 l 4.2745966,-5.317985 a 1.1814304,1.171762 0 0 0 0.228288,-0.990993 L 0.53894439,7.6775738 A 1.1814304,1.171762 0 0 0 -0.10026101,6.8834313 L -6.2790037,3.9321555 A 1.1814304,1.171762 0 0 0 -6.8523435,3.8176372 Z m 0.00299,0.4550789 a 1.1191255,1.1099671 0 0 1 0.5426517,0.1085303 l 5.85315169,2.7948425 A 1.1191255,1.1099671 0 0 1 0.15197811,7.9290648 L 1.598051,14.21035 a 1.1191255,1.1099671 0 0 1 -0.2163123,0.939348 l -4.0493032,5.037304 a 1.1191255,1.1099671 0 0 1 -0.8749789,0.416906 l -6.4961006,0.0015 a 1.1191255,1.1099671 0 0 1 -0.874979,-0.417652 l -4.0508,-5.036554 a 1.1191255,1.1099671 0 0 1 -0.06362,-0.08832 1.1191255,1.1099671 0 0 1 -0.151942,-0.851028 l 1.443827,-6.2812853 a 1.1191255,1.1099671 0 0 1 0.605524,-0.7529758 l 5.8524036,-2.7963395 a 1.1191255,1.1099671 0 0 1 0.4288819,-0.1085303 z"
         style="color:#000000;font-style:normal;font-variant:normal;font-weight:normal;font-stretch:normal;font-size:medium;line-height:normal;font-family:Sans;-inkscape-font-specification:Sans;text-indent:0;text-align:start;text-decoration:none;text-decoration-line:none;letter-spacing:normal;word-spacing:normal;text-transform:none;writing-mode:lr-tb;direction:ltr;baseline-shift:baseline;text-anchor:start;display:inline;overflow:visible;visibility:visible;fill:#ffffff;fill-opacity:1;fill-rule:nonzero;stroke:none;stroke-width:0;stroke-miterlimit:4;stroke-dasharray:none;marker:none;enable-background:accumulate"
         inkscape:connector-curvature="0" />
    </g>
    <text
       id="text2066"
       y="16.811775"
       x="10.017183"
       style="font-style:normal;font-weight:normal;font-size:10.58333302px;line-height:6.61458349px;font-family:Sans;letter-spacing:0px;word-spacing:0px;fill:#ffffff;fill-opacity:1;stroke:none;stroke-width:0.26458332px;stroke-linecap:butt;stroke-linejoin:miter;stroke-opacity:1"
       xml:space="preserve"><tspan
         style="font-style:normal;font-variant:normal;font-weight:normal;font-stretch:normal;font-size:2.82222223px;font-family:Arial;-inkscape-font-specification:'Arial, Normal';text-align:center;writing-mode:lr-tb;text-anchor:middle;fill:#ffffff;fill-opacity:1;stroke-width:0.26458332px"
         y="16.811775"
         x="10.017183"
         id="tspan2064"
         sodipodi:role="line">pod</tspan></text>
    <g
       id="g3341"
       transform="translate(0.12766661,0)">
      <path
         inkscape:export-ydpi="376.57999"
         inkscape:export-xdpi="376.57999"
         style="fill:#ffffff;fill-rule:evenodd;stroke:none;stroke-width:0.26458332;stroke-linecap:square;stroke-miterlimit:10"
         inkscape:connector-curvature="0"
         d="M 6.2617914,7.036086 9.8826317,5.986087 13.503462,7.036086 9.8826317,8.086087 Z"
         id="path910" />
      <path
         inkscape:export-ydpi="376.57999"
         inkscape:export-xdpi="376.57999"
         style="fill:#ffffff;fill-rule:evenodd;stroke:none;stroke-width:0.26458332;stroke-linecap:square;stroke-miterlimit:10"
         inkscape:connector-curvature="0"
         d="m 6.2617914,7.43817 0,3.852778 3.3736103,1.868749 0.0167,-4.713193 z"
         id="path912" />
      <path
         inkscape:export-ydpi="376.57999"
         inkscape:export-xdpi="376.57999"
         style="fill:#ffffff;fill-rule:evenodd;stroke:none;stroke-width:0.26458332;stroke-linecap:square;stroke-miterlimit:10"
         inkscape:connector-curvature="0"
         d="m 13.503462,7.43817 0,3.852778 -3.37361,1.868749 -0.0167,-4.713193 z"
         id="path914" />
    </g>
  </g>
</svg>
